imgs/circle_three_map.svg

<svg height="163" viewBox="0 0 86 163" width="86" xmlns="http://www.w3.org/2000/svg"><g fill="none" fill-rule="evenodd"><g transform="translate(2 68)"><g stroke="#000" stroke-linecap="round" stroke-linejoin="round"><g stroke-width="4"><path d="m5 19v45.5h71.5v-45.5z"/><path d="m41 .5c-4.3333333 0-6.5 2.33333333-6.5 7h-34.5v11.5h82v-11.5h-35c.3333333-4.66666667-1.6666667-7-6-7z"/><path d="m41 93v-28"/><path d="m23 93 18-17 17.5 17"/></g><path d="m15.5 30.5 14 11" stroke-width="3"/><path d="m27.5 29-10.5 13.5" stroke-width="3"/></g><path d="m63.3145939 38.5203916-.134207 18.3570692 2.2882424-1.2652042-15.6182483-9.6472959c-.7048094-.4353565-1.6290964-.2169217-2.0644529.4878877-.4353564.7048094-.2169216 1.6290964.4878878 2.0644529l15.6182484 9.6472959c.9951533.6147001 2.2796911-.0955405 2.2882424-1.2652042l.134207-18.3570692c.0060564-.828405-.6605888-1.5048696-1.4889938-1.510926s-1.5048696.6605888-1.510926 1.4889938zm-37.0122097 6.2565869c10.8707574-13.0689065 20.8147995-11.9573975 29.4727269-.9345084l-.1330756-.200725 7.2417304 13.0973598c.4008562.7249868 1.3135323.9877464 2.038519.5868902.7249868-.4008563.9877465-1.3135323.5868902-2.0385191l-7.2417304-13.0973598c-.0389069-.0703669-.0834088-.1374916-.1330756-.2007251-9.7588132-12.424488-21.9474688-13.7868918-34.1383835.8691178-.5297707.6368944-.4429299 1.5826633.1939645 2.1124341.6368944.5297707 1.5826634.4429299 2.1124341-.1939645z" fill="#000" fill-rule="nonzero" transform="matrix(1 0 0 -1 0 90.658668)"/></g><g transform="translate(19 2)"><circle cx="24" cy="24" r="24" stroke="#000" stroke-width="4"/><path d="m20.8554688 22.2519531h2.6015624c1.3125066-.0117188 2.3525353-.3515591 3.1201172-1.0195312.767582-.6679721 1.1513672-1.6347593 1.1513672-2.9003907 0-1.218756-.3193327-2.1650356-.9580078-2.8388671s-1.6142512-1.0107422-2.9267578-1.0107422c-1.1484432 0-2.0917932.3310514-2.8300781.993164-.738285.6621127-1.1074219 1.5263619-1.1074219 2.5927735h-4.2714844c0-1.3125066.3486294-2.5078071 1.0458985-3.5859375s1.6699156-1.9189423 2.9179687-2.522461c1.2480531-.6035186 2.6455001-.9052734 4.1923828-.9052734 2.5547003 0 4.5615162.6415951 6.0205078 1.9248047 1.4589917 1.2832095 2.1884766 3.0673714 2.1884766 5.352539 0 1.1484433-.3662073 2.2294872-1.0986328 3.2431641-.7324255 1.013677-1.6787051 1.7783177-2.8388672 2.2939453 1.406257.4804712 2.4755823 1.236323 3.2080078 2.2675782.7324255 1.0312551 1.0986328 2.2617116 1.0986328 3.6914062 0 2.2968865-.788078 4.1249932-2.3642578 5.484375-1.5761797 1.3593818-3.6474481 2.0390625-6.2138672 2.0390625-2.4609498 0-4.4765546-.6562434-6.046875-1.96875-1.5703203-1.3125066-2.3554687-3.0585829-2.3554687-5.2382813h4.2714843c0 1.1250057.377926 2.039059 1.1337891 2.7421876.7558632.7031285 1.7724546 1.0546874 3.0498047 1.0546874 1.3242254 0 2.3671837-.3515589 3.1289062-1.0546874.7617226-.7031286 1.1425782-1.7226496 1.1425782-3.0585938 0-1.347663-.3984335-2.384762-1.1953125-3.1113281-.796879-.7265662-1.9804609-1.0898438-3.5507813-1.0898438h-2.5136718z" fill="#000" fill-rule="nonzero"/></g></g></svg>

<?xml version="1.0" encoding="UTF-8"?>
<svg width="86px" height="163px" viewBox="0 0 86 163" version="1.1" xmlns="http://www.w3.org/2000/svg" xmlns:xlink="http://www.w3.org/1999/xlink">
    <!-- Generator: Sketch 51.2 (57519) - http://www.bohemiancoding.com/sketch -->
    <title>circle_three_mapit</title>
    <desc>Created with Sketch.</desc>
    <defs></defs>
    <g id="Page-1" stroke="none" stroke-width="1" fill="none" fill-rule="evenodd">
        <g id="circle_three_mapit" transform="translate(2.000000, 2.000000)">
            <g id="Group-7" transform="translate(0.000000, 66.000000)">
                <g id="Group-5" stroke-linecap="round" stroke-linejoin="round" stroke="#000000" stroke-width="4">
                    <polygon id="Path-7" points="5 19 5 64.5 76.5 64.5 76.5 19"></polygon>
                    <path d="M41,0.5 C36.6666667,0.5 34.5,2.83333333 34.5,7.5 L0,7.5 L0,19 L82,19 L82,7.5 L47,7.5 C47.3333333,2.83333333 45.3333333,0.5 41,0.5 Z" id="Path-9"></path>
                    <path d="M41,93 L41,65" id="Path-10"></path>
                    <polyline id="Path-11" points="23 93 41 76 58.5 93"></polyline>
                </g>
                <path d="M15.5,30.5 L29.5,41.5" id="Line-4" stroke="#000000" stroke-width="3" stroke-linecap="round" stroke-linejoin="round"></path>
                <path d="M27.5,29 L17,42.5" id="Path-12" stroke="#000000" stroke-width="3" stroke-linecap="round" stroke-linejoin="round"></path>
                <path d="M63.3145939,38.5203916 L63.1803869,56.8774608 L65.4686293,55.6122566 L49.850381,45.9649607 C49.1455716,45.5296042 48.2212846,45.748039 47.7859281,46.4528484 C47.3505717,47.1576578 47.5690065,48.0819448 48.2738159,48.5173013 L63.8920643,58.1645972 C64.8872176,58.7792973 66.1717554,58.0690567 66.1803067,56.899393 L66.3145137,38.5423238 C66.3205701,37.7139188 65.6539249,37.0374542 64.8255199,37.0313978 C63.9971149,37.0253414 63.3206503,37.6919866 63.3145939,38.5203916 Z M26.3023842,44.7769785 C37.1731416,31.708072 47.1171837,32.819581 55.7751111,43.8424701 L55.6420355,43.6417451 L62.8837659,56.7391049 C63.2846221,57.4640917 64.1972982,57.7268513 64.9222849,57.3259951 C65.6472717,56.9251388 65.9100314,56.0124628 65.5091751,55.287476 L58.2674447,42.1901162 C58.2285378,42.1197493 58.1840359,42.0526246 58.1343691,41.9893911 C48.3755559,29.5649031 36.1869003,28.2024993 23.9959856,42.8585089 C23.4662149,43.4954033 23.5530557,44.4411722 24.1899501,44.970943 C24.8268445,45.5007137 25.7726135,45.4138729 26.3023842,44.7769785 Z" id="Path-13" fill="#000000" fill-rule="nonzero" transform="translate(44.981851, 45.329334) scale(1, -1) translate(-44.981851, -45.329334) "></path>
            </g>
            <g id="Group-10" transform="translate(17.000000, 0.000000)">
                <circle id="Oval-Copy-6" stroke="#000000" stroke-width="4" cx="24" cy="24" r="24"></circle>
                <path d="M20.8554688,22.2519531 L23.4570312,22.2519531 C24.7695378,22.2402343 25.8095665,21.900394 26.5771484,21.2324219 C27.3447304,20.5644498 27.7285156,19.5976626 27.7285156,18.3320312 C27.7285156,17.1132752 27.4091829,16.1669956 26.7705078,15.4931641 C26.1318327,14.8193326 25.1562566,14.4824219 23.84375,14.4824219 C22.6953068,14.4824219 21.7519568,14.8134733 21.0136719,15.4755859 C20.2753869,16.1376986 19.90625,17.0019478 19.90625,18.0683594 L15.6347656,18.0683594 C15.6347656,16.7558528 15.983395,15.5605523 16.6806641,14.4824219 C17.3779332,13.4042915 18.3505797,12.5634796 19.5986328,11.9599609 C20.8466859,11.3564423 22.2441329,11.0546875 23.7910156,11.0546875 C26.3457159,11.0546875 28.3525318,11.6962826 29.8115234,12.9794922 C31.2705151,14.2627017 32,16.0468636 32,18.3320312 C32,19.4804745 31.6337927,20.5615184 30.9013672,21.5751953 C30.1689417,22.5888723 29.2226621,23.353513 28.0625,23.8691406 C29.468757,24.3496118 30.5380823,25.1054636 31.2705078,26.1367188 C32.0029333,27.1679739 32.3691406,28.3984304 32.3691406,29.828125 C32.3691406,32.1250115 31.5810626,33.9531182 30.0048828,35.3125 C28.4287031,36.6718818 26.3574347,37.3515625 23.7910156,37.3515625 C21.3300658,37.3515625 19.314461,36.6953191 17.7441406,35.3828125 C16.1738203,34.0703059 15.3886719,32.3242296 15.3886719,30.1445312 L19.6601562,30.1445312 C19.6601562,31.2695369 20.0380822,32.1835902 20.7939453,32.8867188 C21.5498085,33.5898473 22.5663999,33.9414062 23.84375,33.9414062 C25.1679754,33.9414062 26.2109337,33.5898473 26.9726562,32.8867188 C27.7343788,32.1835902 28.1152344,31.1640692 28.1152344,29.828125 C28.1152344,28.480462 27.7168009,27.443363 26.9199219,26.7167969 C26.1230429,25.9902307 24.939461,25.6269531 23.3691406,25.6269531 L20.8554688,25.6269531 L20.8554688,22.2519531 Z" id="3" fill="#000000" fill-rule="nonzero"></path>
            </g>
        </g>
    </g>
</svg>
